src/assets/twitter.svg

<svg fill="none" height="45" viewBox="0 0 45 45" width="45" xmlns="http://www.w3.org/2000/svg"><path d="m14.1565 40.7814c16.977 0 26.2653-14.0687 26.2653-26.2653 0-.3955-.0088-.7998-.0264-1.1953 1.8069-1.3067 3.3662-2.9252 4.6046-4.77946-1.6828.74869-3.4694 1.23765-5.2989 1.45019 1.9263-1.15467 3.3686-2.96862 4.0596-5.10556-1.8122 1.07398-3.794 1.83158-5.8605 2.24033-1.3924-1.47947-3.2333-2.45905-5.2383-2.7873-2.0049-.32825-4.0622.01312-5.8536.97133-1.7915.95821-3.2174 2.4799-4.0573 4.32978-.8399 1.84989-1.0471 3.92499-.5894 5.90439-3.6694-.1842-7.2592-1.1374-10.5366-2.7979-3.27745-1.6605-6.16933-3.99125-8.48818-6.8411-1.17857 2.03198-1.53921 4.4365-1.00864 6.7248.53058 2.2884 1.91256 4.2888 3.86508 5.5948-1.46583-.0465-2.89956-.4412-4.18271-1.1513v.1142c-.00132 2.1324.73588 4.1995 2.08628 5.8498 1.3504 1.6504 3.23065 2.7822 5.32114 3.2029-1.35787.3716-2.783.4257-4.16514.1583.5899 1.8338 1.73762 3.4378 3.28299 4.588s3.41128 1.7893 5.33728 1.828c-3.2698 2.5685-7.30902 3.9616-11.46705 3.955-.73739-.0011-1.474052-.0463-2.20605-.1353 4.22411 2.71 9.13787 4.1493 14.1565 4.1467z" fill="#fcfcfc"/></svg>

<svg width="45" height="45" viewBox="0 0 45 45" fill="none" xmlns="http://www.w3.org/2000/svg">
<path d="M14.1565 40.7814C31.1335 40.7814 40.4218 26.7127 40.4218 14.5161C40.4218 14.1206 40.413 13.7163 40.3954 13.3208C42.2023 12.0141 43.7616 10.3956 45 8.54134C43.3172 9.29003 41.5306 9.77899 39.7011 9.99153C41.6274 8.83686 43.0697 7.02291 43.7607 4.88597C41.9485 5.95995 39.9667 6.71755 37.9002 7.1263C36.5078 5.64683 34.6669 4.66725 32.6619 4.339C30.657 4.01075 28.5997 4.35212 26.8083 5.31033C25.0168 6.26854 23.5909 7.79023 22.751 9.64011C21.9111 11.49 21.7039 13.5651 22.1616 15.5445C18.4922 15.3603 14.9024 14.4071 11.625 12.7466C8.34755 11.0861 5.45567 8.75535 3.13682 5.9055C1.95825 7.93748 1.59761 10.342 2.12818 12.6303C2.65876 14.9187 4.04074 16.9191 5.99326 18.2251C4.52743 18.1786 3.0937 17.7839 1.81055 17.0738V17.188C1.80923 19.3204 2.54643 21.3875 3.89683 23.0378C5.24723 24.6882 7.12748 25.82 9.21797 26.2407C7.8601 26.6123 6.43497 26.6664 5.05283 26.399C5.64273 28.2328 6.79045 29.8368 8.33582 30.987C9.88119 32.1372 11.7471 32.7763 13.6731 32.815C10.4033 35.3835 6.36408 36.7766 2.20605 36.77C1.46866 36.7689 0.731998 36.7237 0 36.6347C4.22411 39.3447 9.13787 40.784 14.1565 40.7814Z" fill="#FCFCFC"/>
</svg>
